X:1
T: Fred's Fancy
P:for Winifred Frew
R:Jig
Q:180
K:F
M:6/8
L:1/16
|:c2|f2c2A2 a2f2c2|g4e2 c4c2|d4g2 c4f2|B2d2c2 B2A2G2|
f2c2A2 a2f2c2|d4B2 g2a2b2|a2c2d2 e2f2g2|f6 f4:|
c2|f2F2G2 A2B2c2|d4d2 g4f2|e2E2F2 G2A2B2|c4c2 f4e2|
d2D2E2 F2G2A2|=B4B2 g4f2|e2d2c2 d2c2=B2|c6 c2d2e2|
f2A2B2 c2d2_e2|d4d2 d4f2|e4c2 g4e2|f2c2A2 a2f2c2|
c'2a2f2 c4^c2|d4B2 g2a2b2|a2g2f2 e2f2g2|f6 f4||
